X: 393
T: A Thousand Farewells
R: slide
M: 12/8
K: Dmajor
dAF E2F|DB,A, A,F,A,|F3 BAF|dAF EFA|
dAF E2F|DB,A, A,F,A,|F3 BAF|EDC D2A:|
dcd fed|afd edB|ABA DFA|BAF EFA|
dcd fed|afd edB|ABA DFA|BAF d3:|

